icons/glyphs/glyph-blogolio.svg

<?xml version="1.0" encoding="UTF-8" standalone="no"?><svg height="16" viewBox="0 0 4.2333332 4.2333332" width="16" xmlns="http://www.w3.org/2000/svg"><sodipodi:namedview/><metadata><rdf:RDF><cc:Work><dc:format>image/svg+xml</dc:format><dc:type/><dc:title/></cc:Work></rdf:RDF></metadata><path d="m8 0a8 8 0 0 0 -8 8 8 8 0 0 0 4.0957031 6.980469v-1.386719l-2.0957031-4.3496094 2.7519531-6.4023437h.2167969v5.2265625c-.3089454.144816-.507012.4556743-.5078125.796875.0001319.4527583.3424611.829914.7929687.875.0295938.0057449.056634.0195093.0878907.0195312.0350891 0 .0666519-.014341.0996093-.0214844.4453803-.0500662.7824582-.424861.7832032-.8730468-.0007998-.3412014-.1988664-.6520586-.5078125-.796875v-5.2265625h.2128906l2.7558594 6.4023437-2.0996094 4.3496094v2.273438a8 8 0 0 0 1.4140625.132812 8 8 0 0 0 8-8 8 8 0 0 0 -8-8z" fill="#d0d0d0" stroke-linecap="square" stroke-width="3.037" transform="scale(.26458333)"/></svg>

<?xml version="1.0" encoding="UTF-8" standalone="no"?>
<!-- Created with Inkscape (http://www.inkscape.org/) -->

<svg
   xmlns:dc="http://purl.org/dc/elements/1.1/"
   xmlns:cc="http://creativecommons.org/ns#"
   xmlns:rdf="http://www.w3.org/1999/02/22-rdf-syntax-ns#"
   xmlns:svg="http://www.w3.org/2000/svg"
   xmlns="http://www.w3.org/2000/svg"
   xmlns:sodipodi="http://sodipodi.sourceforge.net/DTD/sodipodi-0.dtd"
   xmlns:inkscape="http://www.inkscape.org/namespaces/inkscape"
   width="16"
   height="16"
   viewBox="0 0 4.2333332 4.2333332"
   version="1.1"
   id="svg8"
   inkscape:version="0.92+devel (f96dc7e339, 2017-07-28, custom)"
   sodipodi:docname="glyph-blogolio.svg">
  <defs
     id="defs2" />
  <sodipodi:namedview
     id="base"
     pagecolor="#002466"
     bordercolor="#ffffff"
     borderopacity="0.38039216"
     inkscape:pageopacity="1"
     inkscape:pageshadow="2"
     inkscape:zoom="36.415999"
     inkscape:cx="10.094581"
     inkscape:cy="7.9162778"
     inkscape:document-units="px"
     inkscape:current-layer="svg8"
     inkscape:document-rotation="0"
     showgrid="false"
     inkscape:showpageshadow="false"
     borderlayer="true"
     inkscape:window-width="1920"
     inkscape:window-height="1051"
     inkscape:window-x="0"
     inkscape:window-y="0"
     inkscape:window-maximized="1"
     units="px" />
  <metadata
     id="metadata5">
    <rdf:RDF>
      <cc:Work
         rdf:about="">
        <dc:format>image/svg+xml</dc:format>
        <dc:type
           rdf:resource="http://purl.org/dc/dcmitype/StillImage" />
        <dc:title></dc:title>
      </cc:Work>
    </rdf:RDF>
  </metadata>
  <path
     style="font-variation-settings:normal;vector-effect:none;fill:#d0d0d0;stroke-width:3.03700018;stroke-linecap:square"
     d="M 8 0 A 8 8 0 0 0 0 8 A 8 8 0 0 0 4.0957031 14.980469 L 4.0957031 13.59375 L 2 9.2441406 L 4.7519531 2.8417969 L 4.96875 2.8417969 L 4.96875 8.0683594 C 4.6598046 8.2131754 4.461738 8.5240337 4.4609375 8.8652344 C 4.4610694 9.3179927 4.8033986 9.6951484 5.2539062 9.7402344 C 5.2835 9.7459793 5.3105402 9.7597437 5.3417969 9.7597656 C 5.376886 9.7597656 5.4084488 9.7454246 5.4414062 9.7382812 C 5.8867865 9.688215 6.2238644 9.3134202 6.2246094 8.8652344 C 6.2238096 8.524033 6.025743 8.2131758 5.7167969 8.0683594 L 5.7167969 2.8417969 L 5.9296875 2.8417969 L 8.6855469 9.2441406 L 6.5859375 13.59375 L 6.5859375 15.867188 A 8 8 0 0 0 8 16 A 8 8 0 0 0 16 8 A 8 8 0 0 0 8 0 z "
     transform="scale(0.26458333)"
     id="path811"
     inkscape:label="#" />
</svg>
